;  Created by Sandify
;  https://sandify.org
;  Version: 0.2.6
;
;  Machine type: Polar
;    Max radius (mm): 250
;    Start point: none
;    End point: none
;  Content type: shape
;  Layer:
;    Shape: Circle
;    Name: circle
;    Number of lobes: 1
;    Direction: clockwise
;    Visible: true
;    Initial width: 10
;    Initial height: 10
;    X offset: 0
;    Y offset: 0
;    Rotate (degrees): 0
;    Reverse path: false
;    Number of loops: 10
;    When transforming shape: smear
;    Scale: true
;      Scale (+/-): 100
;      Scale by: constant
;    Spin: false
;    Track: false
;    Fine tuning:
;      Connect to next layer: line
;      Draw portion of path (%): 100
;      Backtrack at end (%): 0
;      Rotate starting point (%): 0
;  Reverse export path: false
;
; File name: 'sandify'
; File type: gcode
;

G01 X260.000 Y250.000
G01 X260.066 Y250.495
G01 X260.107 Y250.995
G01 X260.124 Y251.502
G01 X260.114 Y252.012
G01 X260.079 Y252.525
G01 X260.018 Y253.039
G01 X259.930 Y253.553
G01 X259.816 Y254.066
G01 X259.676 Y254.576
G01 X259.508 Y255.082
G01 X259.314 Y255.583
G01 X259.094 Y256.077
G01 X258.848 Y256.562
G01 X258.576 Y257.038
G01 X258.278 Y257.503
G01 X257.955 Y257.955
G01 X257.608 Y258.394
G01 X257.236 Y258.817
G01 X256.841 Y259.224
G01 X256.424 Y259.614
G01 X255.984 Y259.984
G01 X255.524 Y260.335
G01 X255.044 Y260.664
G01 X254.544 Y260.971
G01 X254.027 Y261.254
G01 X253.492 Y261.513
G01 X252.942 Y261.746
G01 X252.378 Y261.953
G01 X251.800 Y262.133
G01 X251.210 Y262.284
G01 X250.610 Y262.407
G01 X250.000 Y262.500
G01 X249.383 Y262.563
G01 X248.759 Y262.595
G01 X248.131 Y262.597
G01 X247.500 Y262.566
G01 X246.868 Y262.504
G01 X246.235 Y262.410
G01 X245.605 Y262.284
G01 X244.977 Y262.126
G01 X244.355 Y261.935
G01 X243.739 Y261.713
G01 X243.132 Y261.459
G01 X242.535 Y261.173
G01 X241.949 Y260.856
G01 X241.376 Y260.508
G01 X240.819 Y260.130
G01 X240.277 Y259.723
G01 X239.754 Y259.286
G01 X239.250 Y258.822
G01 X238.768 Y258.330
G01 X238.307 Y257.813
G01 X237.871 Y257.270
G01 X237.460 Y256.703
G01 X237.076 Y256.113
G01 X236.719 Y255.501
G01 X236.392 Y254.869
G01 X236.094 Y254.218
G01 X235.828 Y253.550
G01 X235.595 Y252.865
G01 X235.394 Y252.167
G01 X235.228 Y251.455
G01 X235.096 Y250.732
G01 X235.000 Y250.000
G01 X234.940 Y249.260
G01 X234.917 Y248.514
G01 X234.931 Y247.765
G01 X234.982 Y247.013
G01 X235.071 Y246.260
G01 X235.197 Y245.510
G01 X235.362 Y244.762
G01 X235.564 Y244.021
G01 X235.805 Y243.286
G01 X236.082 Y242.561
G01 X236.397 Y241.847
G01 X236.748 Y241.146
G01 X237.136 Y240.460
G01 X237.559 Y239.790
G01 X238.017 Y239.140
G01 X238.510 Y238.510
G01 X239.035 Y237.902
G01 X239.592 Y237.318
G01 X240.180 Y236.760
G01 X240.798 Y236.229
G01 X241.445 Y235.727
G01 X242.119 Y235.255
G01 X242.818 Y234.816
G01 X243.542 Y234.410
G01 X244.289 Y234.038
G01 X245.056 Y233.702
G01 X245.843 Y233.403
G01 X246.647 Y233.143
G01 X247.467 Y232.921
G01 X248.300 Y232.740
G01 X249.145 Y232.599
G01 X250.000 Y232.500
G01 X250.863 Y232.443
G01 X251.731 Y232.429
G01 X252.602 Y232.458
G01 X253.475 Y232.530
G01 X254.347 Y232.646
G01 X255.216 Y232.805
G01 X256.080 Y233.008
G01 X256.936 Y233.255
G01 X257.783 Y233.545
G01 X258.618 Y233.877
G01 X259.439 Y234.253
G01 X260.243 Y234.670
G01 X261.030 Y235.128
G01 X261.796 Y235.627
G01 X262.539 Y236.165
G01 X263.258 Y236.742
G01 X263.951 Y237.356
G01 X264.615 Y238.006
G01 X265.248 Y238.691
G01 X265.850 Y239.409
G01 X266.417 Y240.160
G01 X266.949 Y240.940
G01 X267.444 Y241.750
G01 X267.900 Y242.586
G01 X268.316 Y243.446
G01 X268.690 Y244.330
G01 X269.022 Y245.235
G01 X269.309 Y246.159
G01 X269.552 Y247.100
G01 X269.748 Y248.055
G01 X269.898 Y249.022
G01 X270.000 Y250.000
G01 X270.054 Y250.985
G01 X270.059 Y251.976
G01 X270.015 Y252.969
G01 X269.922 Y253.963
G01 X269.780 Y254.955
G01 X269.587 Y255.942
G01 X269.346 Y256.922
G01 X269.055 Y257.893
G01 X268.715 Y258.852
G01 X268.327 Y259.796
G01 X267.892 Y260.724
G01 X267.409 Y261.632
G01 X266.880 Y262.519
G01 X266.306 Y263.382
G01 X265.687 Y264.218
G01 X265.026 Y265.026
G01 X264.323 Y265.803
G01 X263.580 Y266.547
G01 X262.798 Y267.256
G01 X261.979 Y267.929
G01 X261.126 Y268.562
G01 X260.238 Y269.154
G01 X259.319 Y269.704
G01 X258.371 Y270.210
G01 X257.396 Y270.670
G01 X256.395 Y271.083
G01 X255.372 Y271.447
G01 X254.329 Y271.761
G01 X253.267 Y272.025
G01 X252.190 Y272.236
G01 X251.100 Y272.395
G01 X250.000 Y272.500
G01 X248.892 Y272.551
G01 X247.779 Y272.547
G01 X246.664 Y272.488
G01 X245.550 Y272.374
G01 X244.438 Y272.205
G01 X243.333 Y271.980
G01 X242.236 Y271.700
G01 X241.150 Y271.365
G01 X240.079 Y270.975
G01 X239.025 Y270.532
G01 X237.991 Y270.036
G01 X236.979 Y269.488
G01 X235.992 Y268.888
G01 X235.032 Y268.238
G01 X234.103 Y267.540
G01 X233.206 Y266.794
G01 X232.345 Y266.002
G01 X231.520 Y265.166
G01 X230.736 Y264.287
G01 X229.993 Y263.368
G01 X229.294 Y262.411
G01 X228.641 Y261.417
G01 X228.036 Y260.388
G01 X227.480 Y259.328
G01 X226.976 Y258.238
G01 X226.525 Y257.121
G01 X226.128 Y255.980
G01 X225.787 Y254.816
G01 X225.502 Y253.634
G01 X225.276 Y252.435
G01 X225.108 Y251.223
G01 X225.000 Y250.000
G01 X224.952 Y248.769
G01 X224.965 Y247.534
G01 X225.039 Y246.297
G01 X225.174 Y245.062
G01 X225.370 Y243.831
G01 X225.628 Y242.607
G01 X225.946 Y241.394
G01 X226.326 Y240.194
G01 X226.765 Y239.010
G01 X227.263 Y237.847
G01 X227.820 Y236.706
G01 X228.434 Y235.590
G01 X229.104 Y234.503
G01 X229.829 Y233.446
G01 X230.608 Y232.424
G01 X231.438 Y231.438
G01 X232.319 Y230.492
G01 X233.248 Y229.588
G01 X234.223 Y228.728
G01 X235.243 Y227.914
G01 X236.304 Y227.150
G01 X237.405 Y226.436
G01 X238.543 Y225.776
G01 X239.715 Y225.171
G01 X240.920 Y224.622
G01 X242.153 Y224.133
G01 X243.413 Y223.703
G01 X244.696 Y223.335
G01 X245.999 Y223.029
G01 X247.320 Y222.788
G01 X248.654 Y222.611
G01 X250.000 Y222.500
G01 X251.353 Y222.455
G01 X252.711 Y222.477
G01 X254.069 Y222.566
G01 X255.426 Y222.722
G01 X256.777 Y222.945
G01 X258.119 Y223.236
G01 X259.449 Y223.593
G01 X260.763 Y224.016
G01 X262.058 Y224.505
G01 X263.332 Y225.058
G01 X264.580 Y225.675
G01 X265.799 Y226.355
G01 X266.987 Y227.096
G01 X268.140 Y227.897
G01 X269.255 Y228.756
G01 X270.329 Y229.671
G01 X271.360 Y230.640
G01 X272.345 Y231.662
G01 X273.280 Y232.734
G01 X274.165 Y233.854
G01 X274.995 Y235.019
G01 X275.769 Y236.226
G01 X276.484 Y237.474
G01 X277.139 Y238.759
G01 X277.731 Y240.078
G01 X278.260 Y241.428
G01 X278.722 Y242.806
G01 X279.117 Y244.208
G01 X279.443 Y245.632
G01 X279.700 Y247.075
G01 X279.886 Y248.532
G01 X280.000 Y250.000
G01 X280.042 Y251.476
G01 X280.011 Y252.956
G01 X279.907 Y254.436
G01 X279.730 Y255.914
G01 X279.480 Y257.384
G01 X279.157 Y258.845
G01 X278.761 Y260.291
G01 X278.294 Y261.720
G01 X277.755 Y263.127
G01 X277.147 Y264.510
G01 X276.469 Y265.865
G01 X275.724 Y267.188
G01 X274.912 Y268.476
G01 X274.036 Y269.726
G01 X273.097 Y270.934
G01 X272.097 Y272.097
G01 X271.039 Y273.213
G01 X269.924 Y274.277
G01 X268.755 Y275.288
G01 X267.535 Y276.243
G01 X266.267 Y277.139
G01 X264.952 Y277.973
G01 X263.595 Y278.744
G01 X262.198 Y279.449
G01 X260.765 Y280.085
G01 X259.298 Y280.652
G01 X257.802 Y281.147
G01 X256.279 Y281.569
G01 X254.734 Y281.916
G01 X253.170 Y282.188
G01 X251.591 Y282.383
G01 X250.000 Y282.500
G01 X248.401 Y282.539
G01 X246.799 Y282.499
G01 X245.197 Y282.380
G01 X243.599 Y282.182
G01 X242.008 Y281.905
G01 X240.430 Y281.549
G01 X238.867 Y281.115
G01 X237.324 Y280.604
G01 X235.804 Y280.015
G01 X234.311 Y279.351
G01 X232.850 Y278.613
G01 X231.423 Y277.802
G01 X230.035 Y276.920
G01 X228.688 Y275.968
G01 X227.387 Y274.949
G01 X226.135 Y273.865
G01 X224.935 Y272.718
G01 X223.790 Y271.510
G01 X222.703 Y270.244
G01 X221.678 Y268.924
G01 X220.717 Y267.552
G01 X219.822 Y266.131
G01 X218.996 Y264.664
G01 X218.242 Y263.155
G01 X217.561 Y261.607
G01 X216.956 Y260.024
G01 X216.428 Y258.409
G01 X215.979 Y256.767
G01 X215.611 Y255.101
G01 X215.324 Y253.415
G01 X215.120 Y251.714
G01 X215.000 Y250.000
G01 X214.964 Y248.279
G01 X215.013 Y246.554
G01 X215.147 Y244.830
G01 X215.366 Y243.111
G01 X215.670 Y241.401
G01 X216.059 Y239.704
G01 X216.531 Y238.025
G01 X217.087 Y236.367
G01 X217.725 Y234.735
G01 X218.444 Y233.133
G01 X219.242 Y231.565
G01 X220.119 Y230.034
G01 X221.072 Y228.546
G01 X222.099 Y227.102
G01 X223.198 Y225.708
G01 X224.367 Y224.367
G01 X225.604 Y223.083
G01 X226.904 Y221.858
G01 X228.266 Y220.695
G01 X229.687 Y219.599
G01 X231.163 Y218.572
G01 X232.691 Y217.617
G01 X234.267 Y216.736
G01 X235.889 Y215.932
G01 X237.551 Y215.207
G01 X239.250 Y214.563
G01 X240.983 Y214.003
G01 X242.745 Y213.527
G01 X244.532 Y213.138
G01 X246.340 Y212.836
G01 X248.164 Y212.623
G01 X250.000 Y212.500
G01 X251.844 Y212.467
G01 X253.691 Y212.525
G01 X255.537 Y212.674
G01 X257.377 Y212.914
G01 X259.207 Y213.245
G01 X261.022 Y213.666
G01 X262.818 Y214.177
G01 X264.590 Y214.777
G01 X266.334 Y215.465
G01 X268.046 Y216.239
G01 X269.721 Y217.098
G01 X271.355 Y218.040
G01 X272.944 Y219.064
G01 X274.484 Y220.167
G01 X275.970 Y221.346
G01 X277.400 Y222.600
G01 X278.770 Y223.925
G01 X280.075 Y225.318
G01 X281.313 Y226.777
G01 X282.479 Y228.298
G01 X283.572 Y229.878
G01 X284.588 Y231.512
G01 X285.524 Y233.198
G01 X286.378 Y234.932
G01 X287.147 Y236.709
G01 X287.829 Y238.525
G01 X288.422 Y240.376
G01 X288.925 Y242.257
G01 X289.335 Y244.165
G01 X289.652 Y246.095
G01 X289.874 Y248.041
G01 X290.000 Y250.000
G01 X290.030 Y251.967
G01 X289.963 Y253.936
G01 X289.799 Y255.904
G01 X289.538 Y257.865
G01 X289.180 Y259.814
G01 X288.726 Y261.747
G01 X288.177 Y263.660
G01 X287.533 Y265.547
G01 X286.795 Y267.403
G01 X285.966 Y269.224
G01 X285.046 Y271.006
G01 X284.038 Y272.744
G01 X282.944 Y274.433
G01 X281.766 Y276.070
G01 X280.506 Y277.649
G01 X279.168 Y279.168
G01 X277.754 Y280.622
G01 X276.268 Y282.007
G01 X274.712 Y283.321
G01 X273.091 Y284.558
G01 X271.408 Y285.716
G01 X269.666 Y286.793
G01 X267.870 Y287.784
G01 X266.025 Y288.687
G01 X264.134 Y289.501
G01 X262.201 Y290.221
G01 X260.232 Y290.847
G01 X258.230 Y291.377
G01 X256.202 Y291.808
G01 X254.150 Y292.140
G01 X252.082 Y292.371
G01 X250.000 Y292.500
G01 X247.911 Y292.527
G01 X245.819 Y292.451
G01 X243.730 Y292.272
G01 X241.648 Y291.990
G01 X239.578 Y291.605
G01 X237.527 Y291.119
G01 X235.498 Y290.531
G01 X233.497 Y289.842
G01 X231.528 Y289.055
G01 X229.597 Y288.171
G01 X227.709 Y287.191
G01 X225.867 Y286.117
G01 X224.078 Y284.952
G01 X222.344 Y283.698
G01 X220.672 Y282.359
G01 X219.064 Y280.936
G01 X217.526 Y279.433
G01 X216.060 Y277.854
G01 X214.671 Y276.201
G01 X213.363 Y274.480
G01 X212.139 Y272.693
G01 X211.003 Y270.845
G01 X209.956 Y268.939
G01 X209.003 Y266.982
G01 X208.145 Y264.976
G01 X207.386 Y262.927
G01 X206.728 Y260.839
G01 X206.171 Y258.718
G01 X205.719 Y256.568
G01 X205.372 Y254.395
G01 X205.132 Y252.204
G01 X205.000 Y250.000
G01 X204.976 Y247.788
G01 X205.061 Y245.574
G01 X205.255 Y243.363
G01 X205.558 Y241.160
G01 X205.970 Y238.971
G01 X206.489 Y236.801
G01 X207.116 Y234.656
G01 X207.848 Y232.540
G01 X208.685 Y230.459
G01 X209.625 Y228.419
G01 X210.665 Y226.424
G01 X211.804 Y224.478
G01 X213.040 Y222.589
G01 X214.369 Y220.758
G01 X215.789 Y218.993
G01 X217.296 Y217.296
G01 X218.888 Y215.673
G01 X220.560 Y214.127
G01 X222.309 Y212.663
G01 X224.131 Y211.285
G01 X226.022 Y209.995
G01 X227.977 Y208.798
G01 X229.992 Y207.696
G01 X232.062 Y206.693
G01 X234.182 Y205.792
G01 X236.348 Y204.994
G01 X238.553 Y204.302
G01 X240.794 Y203.719
G01 X243.065 Y203.246
G01 X245.360 Y202.884
G01 X247.673 Y202.635
G01 X250.000 Y202.500
G01 X252.335 Y202.479
G01 X254.671 Y202.573
G01 X257.004 Y202.782
G01 X259.328 Y203.106
G01 X261.636 Y203.545
G01 X263.925 Y204.097
G01 X266.187 Y204.762
G01 X268.417 Y205.538
G01 X270.609 Y206.425
G01 X272.760 Y207.420
G01 X274.862 Y208.521
G01 X276.910 Y209.726
G01 X278.901 Y211.032
G01 X280.828 Y212.437
G01 X282.686 Y213.937
G01 X284.471 Y215.529
G01 X286.179 Y217.209
G01 X287.805 Y218.974
G01 X289.345 Y220.820
G01 X290.794 Y222.742
G01 X292.149 Y224.737
G01 X293.407 Y226.798
G01 X294.564 Y228.923
G01 X295.617 Y231.105
G01 X296.562 Y233.340
G01 X297.398 Y235.622
G01 X298.123 Y237.946
G01 X298.733 Y240.306
G01 X299.227 Y242.698
G01 X299.604 Y245.114
G01 X299.862 Y247.550
G01 X300.000 Y250.000
G01 X300.018 Y252.457
G01 X299.915 Y254.916
G01 X299.691 Y257.371
G01 X299.346 Y259.815
G01 X298.880 Y262.244
G01 X298.296 Y264.650
G01 X297.592 Y267.029
G01 X296.771 Y269.373
G01 X295.835 Y271.678
G01 X294.785 Y273.938
G01 X293.624 Y276.147
G01 X292.353 Y278.299
G01 X290.976 Y280.390
G01 X289.496 Y282.414
G01 X287.916 Y284.365
G01 X286.239 Y286.239
G01 X284.470 Y288.032
G01 X282.612 Y289.738
G01 X280.669 Y291.353
G01 X278.647 Y292.873
G01 X276.549 Y294.294
G01 X274.380 Y295.612
G01 X272.146 Y296.824
G01 X269.852 Y297.926
G01 X267.502 Y298.916
G01 X265.104 Y299.791
G01 X262.662 Y300.548
G01 X260.181 Y301.185
G01 X257.669 Y301.700
G01 X255.131 Y302.092
G01 X252.572 Y302.359
G01 X250.000 Y302.500
G01 X247.420 Y302.515
G01 X244.839 Y302.403
G01 X242.262 Y302.164
G01 X239.697 Y301.798
G01 X237.149 Y301.306
G01 X234.624 Y300.688
G01 X232.129 Y299.946
G01 X229.670 Y299.081
G01 X227.253 Y298.095
G01 X224.883 Y296.990
G01 X222.568 Y295.768
G01 X220.312 Y294.432
G01 X218.121 Y292.984
G01 X216.000 Y291.429
G01 X213.956 Y289.768
G01 X211.993 Y288.007
G01 X210.116 Y286.149
G01 X208.330 Y284.198
G01 X206.639 Y282.158
G01 X205.049 Y280.036
G01 X203.562 Y277.834
G01 X202.183 Y275.559
G01 X200.916 Y273.215
G01 X199.764 Y270.808
G01 X198.730 Y268.345
G01 X197.817 Y265.830
G01 X197.027 Y263.269
G01 X196.363 Y260.669
G01 X195.827 Y258.036
G01 X195.420 Y255.376
G01 X195.144 Y252.695
G01 X195.000 Y250.000
G01 X194.988 Y247.297
G01 X195.109 Y244.594
G01 X195.363 Y241.895
G01 X195.750 Y239.209
G01 X196.269 Y236.541
G01 X196.920 Y233.898
G01 X197.700 Y231.287
G01 X198.609 Y228.713
G01 X199.645 Y226.184
G01 X200.805 Y223.705
G01 X202.088 Y221.283
G01 X203.490 Y218.923
G01 X205.008 Y216.632
G01 X206.639 Y214.415
G01 X208.379 Y212.277
G01 X210.225 Y210.225
G01 X212.172 Y208.264
G01 X214.216 Y206.397
G01 X216.352 Y204.631
G01 X218.576 Y202.970
G01 X220.881 Y201.418
G01 X223.263 Y199.979
G01 X225.716 Y198.656
G01 X228.235 Y197.454
G01 X230.813 Y196.376
G01 X233.445 Y195.424
G01 X236.124 Y194.602
G01 X238.843 Y193.911
G01 X241.597 Y193.354
G01 X244.379 Y192.932
G01 X247.182 Y192.647
G01 X250.000 Y192.500
G01 X252.825 Y192.491
G01 X255.651 Y192.621
G01 X258.471 Y192.891
G01 X261.279 Y193.298
G01 X264.066 Y193.844
G01 X266.827 Y194.527
G01 X269.555 Y195.346
G01 X272.243 Y196.300
G01 X274.885 Y197.385
G01 X277.474 Y198.601
G01 X280.003 Y199.943
G01 X282.466 Y201.411
G01 X284.858 Y203.000
G01 X287.171 Y204.706
G01 X289.402 Y206.527
G01 X291.543 Y208.457
G01 X293.589 Y210.493
G01 X295.535 Y212.630
G01 X297.377 Y214.863
G01 X299.109 Y217.187
G01 X300.727 Y219.596
G01 X302.226 Y222.084
G01 X303.604 Y224.647
G01 X304.855 Y227.278
G01 X305.978 Y229.971
G01 X306.968 Y232.719
G01 X307.823 Y235.516
G01 X308.541 Y238.356
G01 X309.119 Y241.231
G01 X309.556 Y244.134
G01 X309.850 Y247.060
G01 X310.000 Y250.000
G01 X310.006 Y252.948
G01 X309.867 Y255.896
G01 X309.582 Y258.838
G01 X309.154 Y261.766
G01 X308.581 Y264.674
G01 X307.865 Y267.553
G01 X307.008 Y270.398
G01 X306.010 Y273.200
G01 X304.875 Y275.954
G01 X303.604 Y278.652
G01 X302.201 Y281.288
G01 X300.668 Y283.855
G01 X299.008 Y286.347
G01 X297.226 Y288.757
G01 X295.325 Y291.081
G01 X293.310 Y293.310
G01 X291.185 Y295.441
G01 X288.956 Y297.468
G01 X286.626 Y299.385
G01 X284.202 Y301.187
G01 X281.690 Y302.871
G01 X279.094 Y304.431
G01 X276.422 Y305.864
G01 X273.679 Y307.165
G01 X270.871 Y308.332
G01 X268.007 Y309.360
G01 X265.091 Y310.248
G01 X262.132 Y310.993
G01 X259.136 Y311.592
G01 X256.111 Y312.044
G01 X253.063 Y312.347
G01 X250.000 Y312.500
G01 X246.929 Y312.503
G01 X243.859 Y312.355
G01 X240.795 Y312.055
G01 X237.746 Y311.606
G01 X234.719 Y311.006
G01 X231.721 Y310.257
G01 X228.760 Y309.361
G01 X225.843 Y308.320
G01 X222.977 Y307.135
G01 X220.169 Y305.809
G01 X217.427 Y304.345
G01 X214.756 Y302.746
G01 X212.164 Y301.016
G01 X209.657 Y299.159
G01 X207.241 Y297.178
G01 X204.922 Y295.078
G01 X202.706 Y292.864
G01 X200.600 Y290.542
G01 X198.607 Y288.115
G01 X196.734 Y285.591
G01 X194.985 Y282.975
G01 X193.364 Y280.273
G01 X191.876 Y277.490
G01 X190.525 Y274.635
G01 X189.315 Y271.714
G01 X188.247 Y268.732
G01 X187.327 Y265.699
G01 X186.555 Y262.620
G01 X185.935 Y259.503
G01 X185.468 Y256.356
G01 X185.156 Y253.186
G01 X185.000 Y250.000
G01 X185.000 Y246.807
G01 X185.157 Y243.614
G01 X185.472 Y240.428
G01 X185.942 Y237.258
G01 X186.569 Y234.111
G01 X187.350 Y230.995
G01 X188.285 Y227.918
G01 X189.370 Y224.886
G01 X190.605 Y221.908
G01 X191.986 Y218.991
G01 X193.511 Y216.142
G01 X195.175 Y213.367
G01 X196.976 Y210.675
G01 X198.909 Y208.071
G01 X200.970 Y205.562
G01 X203.154 Y203.154
G01 X205.457 Y200.854
G01 X207.872 Y198.667
G01 X210.395 Y196.599
G01 X213.020 Y194.655
G01 X215.740 Y192.840
G01 X218.549 Y191.159
G01 X221.441 Y189.616
G01 X224.408 Y188.216
G01 X227.444 Y186.961
G01 X230.542 Y185.855
G01 X233.694 Y184.902
G01 X236.892 Y184.103
G01 X240.130 Y183.462
G01 X243.399 Y182.981
G01 X246.692 Y182.659
G01 X250.000 Y182.500
G01 X253.316 Y182.503
G01 X256.631 Y182.670
G01 X259.939 Y182.999
G01 X263.230 Y183.490
G01 X266.496 Y184.144
G01 X269.730 Y184.958
G01 X272.924 Y185.931
G01 X276.070 Y187.061
G01 X279.161 Y188.345
G01 X282.188 Y189.781
G01 X285.144 Y191.366
G01 X288.022 Y193.096
G01 X290.815 Y194.968
G01 X293.515 Y196.976
G01 X296.117 Y199.117
G01 X298.614 Y201.386
G01 X300.998 Y203.778
G01 X303.265 Y206.286
G01 X305.409 Y208.906
G01 X307.423 Y211.631
G01 X309.304 Y214.455
G01 X311.045 Y217.371
G01 X312.644 Y220.372
G01 X314.094 Y223.451
G01 X315.393 Y226.602
G01 X316.537 Y229.816
G01 X317.523 Y233.086
G01 X318.348 Y236.405
G01 X319.011 Y239.763
G01 X319.507 Y243.154
G01 X319.838 Y246.569
G01 X320.000 Y250.000
G01 X319.994 Y253.439
G01 X319.818 Y256.877
G01 X319.474 Y260.306
G01 X318.961 Y263.717
G01 X318.281 Y267.104
G01 X317.434 Y270.456
G01 X316.423 Y273.767
G01 X315.249 Y277.027
G01 X313.915 Y280.229
G01 X312.423 Y283.366
G01 X310.778 Y286.429
G01 X308.982 Y289.411
G01 X307.040 Y292.304
G01 X304.956 Y295.101
G01 X302.735 Y297.796
G01 X300.381 Y300.381
G01 X297.901 Y302.851
G01 X295.300 Y305.198
G01 X292.583 Y307.417
G01 X289.758 Y309.502
G01 X286.831 Y311.448
G01 X283.808 Y313.250
G01 X280.697 Y314.904
G01 X277.505 Y316.404
G01 X274.240 Y317.747
G01 X270.910 Y318.930
G01 X267.521 Y319.948
G01 X264.083 Y320.800
G01 X260.604 Y321.483
G01 X257.091 Y321.995
G01 X253.554 Y322.335
G01 X250.000 Y322.500
G01 X246.439 Y322.491
G01 X242.878 Y322.306
G01 X239.328 Y321.947
G01 X235.795 Y321.413
G01 X232.289 Y320.706
G01 X228.818 Y319.827
G01 X225.391 Y318.777
G01 X222.016 Y317.559
G01 X218.702 Y316.175
G01 X215.455 Y314.628
G01 X212.286 Y312.922
G01 X209.200 Y311.061
G01 X206.207 Y309.048
G01 X203.313 Y306.889
G01 X200.525 Y304.587
G01 X197.851 Y302.149
G01 X195.297 Y299.580
G01 X192.870 Y296.886
G01 X190.575 Y294.072
G01 X188.419 Y291.147
G01 X186.407 Y288.116
G01 X184.545 Y284.986
G01 X182.836 Y281.766
G01 X181.286 Y278.462
G01 X179.899 Y275.083
G01 X178.678 Y271.635
G01 X177.627 Y268.129
G01 X176.748 Y264.571
G01 X176.044 Y260.970
G01 X175.517 Y257.336
G01 X175.168 Y253.676
G01 X175.000 Y250.000
G01 X175.012 Y246.316
G01 X175.206 Y242.633
G01 X175.580 Y238.961
G01 X176.135 Y235.307
G01 X176.869 Y231.682
G01 X177.781 Y228.093
G01 X178.869 Y224.549
G01 X180.132 Y221.060
G01 X181.565 Y217.633
G01 X183.167 Y214.277
G01 X184.933 Y211.000
G01 X186.860 Y207.811
G01 X188.944 Y204.718
G01 X191.179 Y201.727
G01 X193.560 Y198.846
G01 X196.083 Y196.083
G01 X198.741 Y193.445
G01 X201.528 Y190.937
G01 X204.438 Y188.567
G01 X207.464 Y186.341
G01 X210.599 Y184.263
G01 X213.835 Y182.340
G01 X217.165 Y180.576
G01 X220.581 Y178.977
G01 X224.075 Y177.545
G01 X227.639 Y176.286
G01 X231.264 Y175.201
G01 X234.941 Y174.296
G01 X238.663 Y173.571
G01 X242.419 Y173.029
G01 X246.201 Y172.671
G01 X250.000 Y172.500
G01 X253.807 Y172.515
G01 X257.612 Y172.718
G01 X261.406 Y173.107
G01 X265.180 Y173.683
G01 X268.926 Y174.444
G01 X272.633 Y175.389
G01 X276.293 Y176.515
G01 X279.897 Y177.822
G01 X283.436 Y179.305
G01 X286.902 Y180.962
G01 X290.285 Y182.789
G01 X293.578 Y184.782
G01 X296.772 Y186.936
G01 X299.859 Y189.246
G01 X302.833 Y191.708
G01 X305.685 Y194.315
G01 X308.408 Y197.062
G01 X310.995 Y199.942
G01 X313.441 Y202.949
G01 X315.738 Y206.075
G01 X317.881 Y209.314
G01 X319.865 Y212.657
G01 X321.684 Y216.096
G01 X323.333 Y219.625
G01 X324.809 Y223.233
G01 X326.107 Y226.913
G01 X327.224 Y230.656
G01 X328.156 Y234.454
G01 X328.902 Y238.296
G01 X329.459 Y242.174
G01 X329.826 Y246.078
G01 X330.000 Y250.000
G01 X329.982 Y253.929
G01 X329.770 Y257.857
G01 X329.366 Y261.773
G01 X328.769 Y265.668
G01 X327.981 Y269.533
G01 X327.004 Y273.359
G01 X325.838 Y277.135
G01 X324.488 Y280.854
G01 X322.955 Y284.505
G01 X321.243 Y288.080
G01 X319.355 Y291.570
G01 X317.297 Y294.966
G01 X315.072 Y298.261
G01 X312.686 Y301.445
G01 X310.144 Y304.512
G01 X307.452 Y307.452
G01 X304.617 Y310.260
G01 X301.644 Y312.928
G01 X298.540 Y315.449
G01 X295.314 Y317.817
G01 X291.972 Y320.025
G01 X288.522 Y322.070
G01 X284.973 Y323.943
G01 X281.332 Y325.643
G01 X277.609 Y327.162
G01 X273.812 Y328.499
G01 X269.951 Y329.649
G01 X266.034 Y330.608
G01 X262.071 Y331.375
G01 X258.071 Y331.947
G01 X254.044 Y332.323
G01 X250.000 Y332.500
G01 X245.948 Y332.479
G01 X241.898 Y332.258
G01 X237.860 Y331.839
G01 X233.844 Y331.221
G01 X229.859 Y330.406
G01 X225.915 Y329.396
G01 X222.022 Y328.192
G01 X218.189 Y326.797
G01 X214.426 Y325.215
G01 X210.741 Y323.448
G01 X207.145 Y321.500
G01 X203.645 Y319.376
G01 X200.250 Y317.080
G01 X196.969 Y314.619
G01 X193.809 Y311.997
G01 X190.780 Y309.220
G01 X187.887 Y306.296
G01 X185.140 Y303.230
G01 X182.543 Y300.029
G01 X180.105 Y296.703
G01 X177.830 Y293.257
G01 X175.726 Y289.700
G01 X173.797 Y286.042
G01 X172.048 Y282.289
G01 X170.484 Y278.451
G01 X169.109 Y274.538
G01 X167.926 Y270.558
G01 X166.940 Y266.522
G01 X166.152 Y262.438
G01 X165.565 Y258.316
G01 X165.180 Y254.167
G01 X165.000 Y250.000
G01 X165.024 Y245.825
G01 X165.254 Y241.653
G01 X165.688 Y237.494
G01 X166.327 Y233.356
G01 X167.168 Y229.252
G01 X168.212 Y225.190
G01 X169.454 Y221.180
G01 X170.893 Y217.233
G01 X172.525 Y213.357
G01 X174.348 Y209.563
G01 X176.356 Y205.859
G01 X178.546 Y202.256
G01 X180.912 Y198.761
G01 X183.449 Y195.383
G01 X186.151 Y192.131
G01 X189.012 Y189.012
G01 X192.026 Y186.035
G01 X195.184 Y183.207
G01 X198.481 Y180.535
G01 X201.908 Y178.026
G01 X205.458 Y175.686
G01 X209.121 Y173.521
G01 X212.890 Y171.537
G01 X216.754 Y169.738
G01 X220.706 Y168.130
G01 X224.736 Y166.716
G01 X228.834 Y165.501
G01 X232.991 Y164.488
G01 X237.195 Y163.679
G01 X241.439 Y163.077
G01 X245.710 Y162.683
G01 X250.000 Y162.500
G01 X254.297 Y162.527
G01 X258.592 Y162.766
G01 X262.873 Y163.215
G01 X267.131 Y163.875
G01 X271.356 Y164.743
G01 X275.536 Y165.819
G01 X279.662 Y167.100
G01 X283.724 Y168.583
G01 X287.712 Y170.265
G01 X291.615 Y172.143
G01 X295.426 Y174.212
G01 X299.133 Y176.467
G01 X302.729 Y178.904
G01 X306.203 Y181.516
G01 X309.548 Y184.298
G01 X312.756 Y187.244
G01 X315.817 Y190.347
G01 X318.725 Y193.598
G01 X321.473 Y196.992
G01 X324.053 Y200.520
G01 X326.458 Y204.173
G01 X328.684 Y207.943
G01 X330.723 Y211.821
G01 X332.572 Y215.798
G01 X334.224 Y219.864
G01 X335.676 Y224.010
G01 X336.924 Y228.227
G01 X337.964 Y232.503
G01 X338.794 Y236.829
G01 X339.411 Y241.194
G01 X339.814 Y245.588
G01 X340.000 Y250.000
G01 X339.970 Y254.420
G01 X339.722 Y258.837
G01 X339.258 Y263.240
G01 X338.577 Y267.619
G01 X337.682 Y271.963
G01 X336.573 Y276.262
G01 X335.254 Y280.504
G01 X333.727 Y284.681
G01 X331.995 Y288.781
G01 X330.062 Y292.794
G01 X327.933 Y296.711
G01 X325.612 Y300.522
G01 X323.104 Y304.218
G01 X320.416 Y307.789
G01 X317.554 Y311.227
G01 X314.523 Y314.523
G01 X311.332 Y317.670
G01 X307.988 Y320.658
G01 X304.497 Y323.481
G01 X300.869 Y326.131
G01 X297.113 Y328.603
G01 X293.236 Y330.889
G01 X289.248 Y332.983
G01 X285.159 Y334.881
G01 X280.978 Y336.578
G01 X276.715 Y338.068
G01 X272.381 Y339.349
G01 X267.985 Y340.416
G01 X263.538 Y341.267
G01 X259.051 Y341.899
G01 X254.535 Y342.311
G01 X250.000 Y342.500
G01 X245.457 Y342.467
G01 X240.918 Y342.210
G01 X236.393 Y341.731
G01 X231.893 Y341.029
G01 X227.429 Y340.107
G01 X223.013 Y338.966
G01 X218.653 Y337.608
G01 X214.363 Y336.036
G01 X210.151 Y334.255
G01 X206.028 Y332.267
G01 X202.004 Y330.077
G01 X198.089 Y327.690
G01 X194.293 Y325.112
G01 X190.625 Y322.349
G01 X187.094 Y319.406
G01 X183.709 Y316.291
G01 X180.478 Y313.011
G01 X177.409 Y309.573
G01 X174.511 Y305.986
G01 X171.790 Y302.258
G01 X169.253 Y298.398
G01 X166.906 Y294.414
G01 X164.757 Y290.317
G01 X162.809 Y286.116
G01 X161.068 Y281.820
G01 X159.539 Y277.441
G01 X158.226 Y272.988
G01 X157.132 Y268.473
G01 X156.260 Y263.905
G01 X155.613 Y259.296
G01 X155.192 Y254.658
G01 X155.000 Y250.000
G01 X155.036 Y245.335
G01 X155.302 Y240.673
G01 X155.796 Y236.026
G01 X156.519 Y231.405
G01 X157.468 Y226.822
G01 X158.642 Y222.287
G01 X160.038 Y217.811
G01 X161.654 Y213.406
G01 X163.485 Y209.082
G01 X165.528 Y204.849
G01 X167.779 Y200.718
G01 X170.231 Y196.700
G01 X172.880 Y192.804
G01 X175.719 Y189.039
G01 X178.741 Y185.415
G01 X181.941 Y181.941
G01 X185.310 Y178.626
G01 X188.841 Y175.477
G01 X192.524 Y172.503
G01 X196.353 Y169.711
G01 X200.317 Y167.109
G01 X204.407 Y164.702
G01 X208.614 Y162.497
G01 X212.928 Y160.499
G01 X217.337 Y158.714
G01 X221.833 Y157.147
G01 X226.404 Y155.801
G01 X231.040 Y154.680
G01 X235.728 Y153.787
G01 X240.459 Y153.125
G01 X245.220 Y152.695
G01 X250.000 Y152.500
G01 X254.788 Y152.539
G01 X259.572 Y152.814
G01 X264.341 Y153.323
G01 X269.082 Y154.067
G01 X273.785 Y155.043
G01 X278.439 Y156.250
G01 X283.031 Y157.685
G01 X287.551 Y159.344
G01 X291.987 Y161.225
G01 X296.329 Y163.324
G01 X300.567 Y165.634
G01 X304.689 Y168.152
G01 X308.686 Y170.872
G01 X312.547 Y173.786
G01 X316.264 Y176.889
G01 X319.827 Y180.173
G01 X323.227 Y183.631
G01 X326.456 Y187.255
G01 X329.505 Y191.035
G01 X332.367 Y194.964
G01 X335.036 Y199.032
G01 X337.503 Y203.229
G01 X339.763 Y207.545
G01 X341.811 Y211.971
G01 X343.639 Y216.495
G01 X345.245 Y221.108
G01 X346.624 Y225.797
G01 X347.772 Y230.552
G01 X348.686 Y235.361
G01 X349.363 Y240.214
G01 X349.802 Y245.097
G01 X350.000 Y250.000
G01 X349.958 Y254.911
G01 X349.674 Y259.817
G01 X349.149 Y264.707
G01 X348.385 Y269.570
G01 X347.382 Y274.393
G01 X346.143 Y279.165
G01 X344.669 Y283.873
G01 X342.965 Y288.508
G01 X341.035 Y293.056
G01 X338.881 Y297.508
G01 X336.510 Y301.852
G01 X333.926 Y306.078
G01 X331.137 Y310.175
G01 X328.147 Y314.133
G01 X324.963 Y317.943
G01 X321.595 Y321.595
G01 X318.048 Y325.079
G01 X314.331 Y328.388
G01 X310.454 Y331.513
G01 X306.425 Y334.446
G01 X302.254 Y337.180
G01 X297.950 Y339.708
G01 X293.524 Y342.023
G01 X288.986 Y344.120
G01 X284.347 Y345.993
G01 X279.618 Y347.638
G01 X274.811 Y349.049
G01 X269.936 Y350.224
G01 X265.005 Y351.159
G01 X260.031 Y351.851
G01 X255.026 Y352.299
G01 X250.000 Y352.500
G01 X244.967 Y352.455
G01 X239.938 Y352.162
G01 X234.926 Y351.622
G01 X229.942 Y350.837
G01 X225.000 Y349.807
G01 X220.110 Y348.535
G01 X215.285 Y347.023
G01 X210.536 Y345.275
G01 X205.875 Y343.295
G01 X201.314 Y341.086
G01 X196.863 Y338.654
G01 X192.533 Y336.005
G01 X188.336 Y333.145
G01 X184.281 Y330.079
G01 X180.378 Y326.816
G01 X176.638 Y323.362
G01 X173.068 Y319.727
G01 X169.679 Y315.917
G01 X166.479 Y311.943
G01 X163.475 Y307.814
G01 X160.676 Y303.539
G01 X158.087 Y299.128
G01 X155.717 Y294.593
G01 X153.570 Y289.943
G01 X151.653 Y285.189
G01 X149.970 Y280.344
G01 X148.526 Y275.418
G01 X147.324 Y270.424
G01 X146.368 Y265.372
G01 X145.661 Y260.276
G01 X145.205 Y255.148
G01 X145.000 Y250.000
G01 X145.048 Y244.844
G01 X145.350 Y239.693
G01 X145.905 Y234.559
G01 X146.711 Y229.455
G01 X147.768 Y224.392
G01 X149.073 Y219.384
G01 X150.623 Y214.442
G01 X152.415 Y209.579
G01 X154.446 Y204.806
G01 X156.709 Y200.135
G01 X159.201 Y195.577
G01 X161.916 Y191.144
G01 X164.847 Y186.847
G01 X167.988 Y182.695
G01 X171.332 Y178.699
G01 X174.870 Y174.870
G01 X178.594 Y171.216
G01 X182.497 Y167.747
G01 X186.567 Y164.471
G01 X190.797 Y161.397
G01 X195.176 Y158.531
G01 X199.693 Y155.882
G01 X204.338 Y153.457
G01 X209.101 Y151.260
G01 X213.969 Y149.299
G01 X218.930 Y147.577
G01 X223.975 Y146.101
G01 X229.089 Y144.872
G01 X234.261 Y143.895
G01 X239.478 Y143.173
G01 X244.729 Y142.708
G01 X250.000 Y142.500
G01 X255.279 Y142.551
G01 X260.552 Y142.862
G01 X265.808 Y143.432
G01 X271.033 Y144.259
G01 X276.215 Y145.343
G01 X281.342 Y146.680
G01 X286.400 Y148.269
G01 X291.378 Y150.106
G01 X296.263 Y152.186
G01 X301.043 Y154.504
G01 X305.708 Y157.057
G01 X310.245 Y159.838
G01 X314.643 Y162.839
G01 X318.891 Y166.056
G01 X322.980 Y169.479
G01 X326.898 Y173.102
G01 X330.636 Y176.915
G01 X334.186 Y180.911
G01 X337.537 Y185.078
G01 X340.682 Y189.408
G01 X343.613 Y193.891
G01 X346.322 Y198.515
G01 X348.803 Y203.270
G01 X351.049 Y208.144
G01 X353.055 Y213.126
G01 X354.815 Y218.205
G01 X356.325 Y223.367
G01 X357.580 Y228.601
G01 X358.578 Y233.894
G01 X359.315 Y239.233
G01 X359.789 Y244.606

